public/svg/sass.svg

<svg width="24" height="24" viewBox="0 0 24 24" fill="none" xmlns="http://www.w3.org/2000/svg">
<g clip-path="url(#clip0)">
<path d="M20.6529 12.7399C19.8998 12.741 19.1569 12.9134 18.4803 13.2439C18.2565 12.8011 18.0333 12.4069 17.9943 12.1177C17.9499 11.7799 17.8971 11.5741 17.9499 11.1709C18.0027 10.7683 18.2391 10.1941 18.2349 10.1509C18.2301 10.1065 18.1821 9.90073 17.7003 9.89653C17.2185 9.89173 16.8021 9.98833 16.7541 10.1155C16.7061 10.2421 16.6137 10.5313 16.5525 10.8295C16.4691 11.2675 15.5883 12.8317 15.0849 13.6507C14.9229 13.3309 14.7825 13.0507 14.7519 12.8275C14.7081 12.4897 14.6553 12.2839 14.7081 11.8807C14.7603 11.4781 14.9967 10.9039 14.9925 10.8601C14.9883 10.8163 14.9403 10.6105 14.4585 10.6057C13.9761 10.6015 13.5597 10.6981 13.5117 10.8253C13.4637 10.9519 13.4109 11.2501 13.3101 11.5393C13.2093 11.8285 12.0399 14.4397 11.7333 15.1141C11.6093 15.3872 11.4793 15.6575 11.3433 15.9247C11.3433 15.9247 11.3385 15.9379 11.3253 15.9595C11.2425 16.1215 11.1945 16.2097 11.1945 16.2097V16.2139C11.1285 16.3321 11.0583 16.4419 11.0235 16.4419C10.9971 16.4419 10.9491 16.1263 11.0319 15.6967C11.2071 14.7901 11.6235 13.3795 11.6193 13.3309C11.6193 13.3045 11.6979 13.0597 11.3475 12.9325C11.0055 12.8053 10.8831 13.0159 10.8525 13.0159C10.8219 13.0159 10.7997 13.0903 10.7997 13.0903C10.7997 13.0903 11.1813 11.5039 10.0725 11.5039C9.38068 11.5039 8.42548 12.2623 7.95208 12.9457C7.65448 13.1077 7.01907 13.4539 6.33988 13.8259C6.08187 13.9705 5.81427 14.1151 5.56407 14.2513C5.54667 14.2333 5.52927 14.2117 5.51188 14.1943C4.17088 12.7615 1.69168 11.7493 1.79667 9.82633C1.83627 9.12493 2.07688 7.28533 6.55888 5.05033C10.2477 3.23233 13.1829 3.73633 13.6917 4.85353C14.4189 6.44833 12.1185 9.40993 8.30727 9.83953C6.85228 10.0015 6.09028 9.44053 5.89708 9.23053C5.69607 9.01153 5.66488 8.99833 5.59107 9.04213C5.46807 9.10813 5.54668 9.30493 5.59107 9.41893C5.70507 9.71653 6.17307 10.2421 6.96627 10.5007C7.66707 10.7287 9.37168 10.8559 11.4351 10.0585C13.7439 9.16453 15.5493 6.68053 15.0189 4.59973C14.4891 2.48773 10.9839 1.79113 7.66707 2.96953C5.69607 3.67093 3.55767 4.77493 2.01988 6.21193C0.192875 7.92013 -0.0957248 9.40573 0.0218752 10.0279C0.447275 12.2359 3.49227 13.6729 4.71027 14.7379C4.64847 14.7727 4.59148 14.8033 4.54347 14.8297C3.93447 15.1315 1.61248 16.3453 1.03408 17.6293C0.377075 19.0837 1.13968 20.1265 1.64307 20.2663C3.20727 20.7001 4.81528 19.9201 5.67808 18.6325C6.54148 17.3443 6.43647 15.6709 6.03807 14.9041C6.03328 14.8951 6.02908 14.8861 6.02007 14.8777C6.17788 14.7859 6.33988 14.6893 6.49768 14.5975C6.80848 14.4133 7.11567 14.2423 7.37847 14.1019C7.22907 14.5099 7.11987 14.9959 7.06707 15.6967C7.00107 16.5205 7.33888 17.5897 7.78108 18.0103C7.97848 18.1939 8.21068 18.1987 8.35948 18.1987C8.87667 18.1987 9.10888 17.7691 9.36748 17.2609C9.68248 16.6387 9.96747 15.9157 9.96747 15.9157C9.96747 15.9157 9.61287 17.8699 10.5765 17.8699C10.9269 17.8699 11.2821 17.4139 11.4393 17.1823V17.1865C11.4393 17.1865 11.4483 17.1733 11.4657 17.1427L11.5227 17.0509V17.0419C11.6631 16.7965 11.9787 16.2403 12.4467 15.3157C13.0521 14.1241 13.6347 12.6343 13.6347 12.6343C13.6347 12.6343 13.6869 12.9979 13.8669 13.6027C13.9719 13.9579 14.1909 14.3473 14.3661 14.7247C14.2257 14.9215 14.1381 15.0307 14.1381 15.0307L14.1429 15.0355C14.0289 15.1843 13.9059 15.3463 13.7703 15.5041C13.2927 16.0741 12.7233 16.7263 12.6441 16.9147C12.5523 17.1385 12.5745 17.3005 12.7497 17.4319C12.8763 17.5279 13.1043 17.5411 13.3365 17.5279C13.7661 17.4979 14.0685 17.3923 14.2173 17.3269C14.4495 17.2429 14.7213 17.1169 14.9751 16.9279C15.4437 16.5817 15.7287 16.0867 15.7023 15.4339C15.6891 15.0745 15.5709 14.7157 15.4263 14.3779C15.4701 14.3167 15.5097 14.2555 15.5535 14.1943C16.2939 13.1119 16.8675 11.9245 16.8675 11.9245C16.8675 11.9245 16.9203 12.2881 17.1003 12.8929C17.1879 13.1995 17.3673 13.5325 17.5251 13.8571C16.8285 14.4223 16.3989 15.0793 16.2459 15.5083C15.9699 16.3063 16.1841 16.6651 16.5921 16.7485C16.7757 16.7881 17.0385 16.7005 17.2317 16.6165C17.4765 16.5385 17.7657 16.4023 18.0417 16.2007C18.5109 15.8545 18.9621 15.3727 18.9357 14.7199C18.9225 14.4223 18.8439 14.1283 18.7341 13.8439C19.3257 13.5979 20.0877 13.4623 21.0603 13.5763C23.1459 13.8223 23.5581 15.1231 23.4789 15.6703C23.4003 16.2181 22.9623 16.5163 22.8177 16.6081C22.6731 16.7005 22.6245 16.7311 22.6377 16.7965C22.6557 16.8925 22.7253 16.8889 22.8477 16.8709C23.0187 16.8409 23.9433 16.4287 23.9829 15.4207C24.0489 14.1331 22.8219 12.7267 20.6529 12.7399ZM4.56628 18.1639C3.87387 18.9169 2.91027 19.2019 2.49388 18.9607C2.04688 18.7027 2.22207 17.5897 3.07227 16.7923C3.58887 16.3063 4.25487 15.8545 4.69767 15.5785C4.79847 15.5173 4.94728 15.4297 5.12668 15.3205C5.15727 15.3025 5.17467 15.2941 5.17467 15.2941L5.28028 15.2281C5.59108 16.3675 5.29347 17.3701 4.56628 18.1633V18.1639ZM9.60448 14.7379C9.36327 15.3247 8.85987 16.8271 8.55267 16.7443C8.28988 16.6741 8.12787 15.5347 8.50047 14.4091C8.68888 13.8439 9.08727 13.1689 9.31947 12.9061C9.69627 12.4855 10.1127 12.3451 10.2135 12.5161C10.3407 12.7399 9.75327 14.3695 9.60448 14.7373V14.7379ZM13.7625 16.7263C13.6617 16.7791 13.5645 16.8139 13.5213 16.7881C13.4907 16.7701 13.5651 16.7005 13.5651 16.7005C13.5651 16.7005 14.0865 16.1395 14.2923 15.8851C14.4105 15.7363 14.5503 15.5611 14.6997 15.3637V15.4207C14.6997 16.0909 14.0517 16.5427 13.7619 16.7263H13.7625ZM16.9689 15.9943C16.8945 15.9421 16.9077 15.7669 17.1573 15.2191C17.2539 15.0049 17.4813 14.6455 17.8713 14.2993C17.9157 14.4397 17.9463 14.5753 17.9415 14.7025C17.9373 15.5485 17.3331 15.8635 16.9695 15.9949L16.9689 15.9943Z" fill="#C16D97"/>
</g>
<defs>
<clipPath id="clip0">
<rect width="24" height="24" fill="white"/>
</clipPath>
</defs>
</svg>

<svg xmlns="http://www.w3.org/2000/svg" width="24" height="24" fill="none" xmlns:v="https://vecta.io/nano"><g clip-path="url(#A)"><path d="M20.653 12.74c-.753.001-1.496.173-2.173.504-.224-.443-.447-.837-.486-1.126-.044-.338-.097-.544-.044-.947s.289-.977.285-1.02-.053-.25-.535-.254-.898.092-.946.219a5.26 5.26 0 0 0-.202.714c-.083.438-.964 2.002-1.468 2.821-.162-.32-.302-.6-.333-.823-.044-.338-.097-.544-.044-.947s.289-.977.284-1.021-.052-.25-.534-.254-.899.092-.947.22-.101.425-.202.714-1.27 2.9-1.577 3.575l-.39.811s-.005.013-.018.035l-.131.25v.004c-.066.118-.136.228-.171.228-.026 0-.074-.316.008-.745.175-.907.592-2.317.587-2.366 0-.026.079-.271-.272-.398-.342-.127-.464.083-.495.083s-.053.074-.053.074.382-1.586-.727-1.586c-.692 0-1.647.758-2.12 1.442l-1.612.88-.776.425-.052-.057c-1.341-1.433-3.82-2.445-3.715-4.368.04-.701.28-2.541 4.762-4.776 3.689-1.818 6.624-1.314 7.133-.197.727 1.595-1.573 4.556-5.384 4.986-1.455.162-2.217-.399-2.41-.609-.201-.219-.232-.232-.306-.188-.123.066-.044.263 0 .377.114.298.582.823 1.375 1.082.701.228 2.405.355 4.469-.442 2.309-.894 4.114-3.378 3.584-5.459-.53-2.112-4.035-2.809-7.352-1.63-1.971.701-4.109 1.805-5.647 3.242C.193 7.92-.096 9.406.022 10.028c.425 2.208 3.47 3.645 4.688 4.71l-.167.092c-.609.302-2.931 1.516-3.509 2.8-.657 1.454.106 2.497.609 2.637 1.564.434 3.172-.346 4.035-1.634s.758-2.962.36-3.728c-.005-.009-.009-.018-.018-.026l.478-.28.881-.496c-.149.408-.259.894-.311 1.595-.066.824.272 1.893.714 2.314.197.184.43.188.578.188.517 0 .749-.43 1.008-.938l.6-1.345s-.355 1.954.609 1.954c.35 0 .706-.456.863-.688v.004s.009-.013.026-.044l.057-.092v-.009l.924-1.726c.605-1.192 1.188-2.681 1.188-2.681s.052.364.232.968c.105.355.324.745.499 1.122l-.228.306.005.005-.373.469-1.126 1.411c-.092.224-.07.386.106.517.127.096.355.109.587.096.43-.03.732-.136.881-.201.232-.084.504-.21.758-.399.469-.346.754-.841.727-1.494-.013-.359-.131-.718-.276-1.056l.127-.184c.74-1.082 1.314-2.27 1.314-2.27s.053.364.233.968c.088.307.267.64.425.964-.697.565-1.126 1.222-1.279 1.651-.276.798-.062 1.157.346 1.24.184.04.446-.048.64-.132a2.89 2.89 0 0 0 .81-.416c.469-.346.92-.828.894-1.481-.013-.298-.092-.592-.202-.876.592-.246 1.354-.382 2.326-.268 2.086.246 2.498 1.547 2.419 2.094s-.517.846-.661.938-.193.123-.18.188c.018.096.088.092.21.074.171-.03 1.096-.442 1.135-1.45.066-1.288-1.161-2.694-3.33-2.681zM4.566 18.164c-.692.753-1.656 1.038-2.072.797-.447-.258-.272-1.371.578-2.168.517-.486 1.183-.938 1.625-1.214l.429-.258.048-.026.106-.066a2.99 2.99 0 0 1-.714 2.935v.001zm5.038-3.426c-.241.587-.745 2.089-1.052 2.006-.263-.07-.425-1.21-.052-2.335.188-.565.587-1.24.819-1.503.377-.421.793-.561.894-.39.127.224-.46 1.853-.609 2.221v.001zm4.158 1.988c-.101.053-.198.088-.241.062-.031-.018.044-.088.044-.088l.727-.815.407-.521v.057c0 .67-.648 1.122-.938 1.306h.001zm3.206-.732c-.074-.052-.061-.227.188-.775.097-.214.324-.574.714-.92.044.14.075.276.07.403-.004.846-.608 1.161-.972 1.292l-.001-.001z" fill="#c16d97"/></g><defs><clipPath id="A"><path fill="#fff" d="M0 0h24v24H0z"/></clipPath></defs></svg>
